X:1
T:Fra questi stassi
T:Fra questi sassi
T:Giovanni Croce Chiozotto
T:Source : Canzonette a 3 voci---Libro primo---Venetia---G.Vincenti---1601. Editor : André Vierendeels (12/02/15).
C:Giovanni Croce Chiozotto
%%score [ 1 2 3 ]
L:1/8
Q:1/4=120
M:4/4
K:F
V:1 treble nm="Canto 1" snm="C 1"
V:2 treble nm="Canto 2" snm="C 2"
V:3 bass nm="Basso" snm="B"
V:1
 B4 B2 B2 | B4 B2 B2 | d2 c2 B2 B2 | A4 A4 | c4 c2 c2 | c2 d2 c4- | c2 c2 c2 B2 | A4 A4 :: %8
w: Fra que- sti|sas- si'e- luo-|ghi'a- spi- ri'e sel-|vag- gi,|o- ve del|Sol non pon|_ no con- trar'i|rag- gi,|
w: Poi ch'io son|so- lo, e|tu cru- del non|sen- ti,|il pian- ger|me- sto'e'i du-|* ri miei la-|men- ti,|
w: Deh fos- s'io|mor- to, che|per vo- i ser-|vi- re,|pro- vo'un- do-|lor ch'a- van-|* za'o- gni mar-|ti- re,|
w: Ne fa- ran|fe- de,- e|por- te- tan- no'il|pian- to,|per l'a- ria'in-|tor- no do-|* lo- ro- so|tan- to,|
w: Di sas- so'in|sas- so,- e|d'un in al- tro|lo- co,|mi strog- go|co- me ce-|* r'ap- pres- so'il|fo- co,|
 d4 d2 d2 | d4 d4 | f2 e2 d2 d2 | c8 | cccd _e4 | BBBc d4- | d2 cB A4 | G8 :| %16
w: a que- sti|fag- gi|sfor- ga- ro'il mio|duo-|lo, poi ch'io son so-|lo, poi ch'e son so-||lo.|
w: ma que- sti|ven- ti|poi per lor mer-|ce-|de, ne fa- ran fe-|de, ne fa- ran fe-||de.|
w: cer- can- do|di mo-|rir di pas- so'in|pas-|so, di sas- so'in sas-|so, di sas- so'in sas-||so.-|
w: sce- man- do'al-|quan- to|la pas- sion ch'io|por-|to, deh fos- s'io mor-|to, deh fos- s'io mor-||to.|
w: pas- san- do'a|po- co'a|po- co'i fiu- mi'e'i|fon-|ti, le sel- v'e'i mon-|ti, le sel- v'e'i mon-||ti.|
V:2
 G4 G2 G2 | G4 D2 G2 | F2 E2 F2 G2 | C4 F4 | A4 A2 A2 | A2 B2 A4- | A2 A2 A2 G2 | ^F4 F4 :: %8
w: Fra que- sti|sas- si'e luo-|ghi'a- spi- ri'e sel-|vag- gi,|o- ve del|Sol non pon-|* no con- trar'i|rag- gi,|
w: Poi ch'io son|so- lo, e|tu cru- del non|sen- ti,|il pian- ger|me- sto'e'i du-|* ri miei ma-|men- ti,|
w: Ne fe- ran|fe- de, e|por- te- ran- no'il|pian- to,|per l'a- ria'in-|tor- no, do|_ lo- ro- so|tan- to,|
w: Deh fos- s'io|mor- to, che|per vo- i ser-|vi- re,|pro- vo'un do-|lor ch'a- van-|* za'o- gni mar-|ti- re,|
w: Di sas- so'in|sas- so, e|d'un in al- tro|lo- co,|mi strog- go|co- me ce-|* r'ap- pres- so'il|fo- co,|
 B4 B2 B2 | B4 B4 | d2 c2 B2 B2 | A8 | AAAB c4 | GGGA B3 A/G/ | ^F2 G4 F2 | G8 :| %16
w: a que- sti|fag- gi|sfor- ga- ro'il mio|duo-|lo, poi ch'io son so-|lo, poi ch'e son so- * *||lo.|
w: ma que- sti|ven- ti|poi per lor mer-|ce-|de, ne fa- ran fe-|de, ne fa- ran fe- * *||de,|
w: sce- man- do'al-|quan- to|la pas- sion ch'io|por-|to, deh fos- s'io mor-|to, deh fos- s'io mor- * *||to.|
w: cer- can- do|di mo-|rir di pas- so'in|pas-|so, di sas- so'in sas-|so, di sas- so'in sas- * *||so.|
w: pas- san- do'a|po- co'a|po- co'i fiu- mi'e'i|fon-|ti, le sel- v'e'i mon-|ti, le sel- v'e'i mon- * *||ti.|
V:3
 G,4 G,2 G,2 | G,4 G,2 G,,2 | B,,2 C,2 D,2 E,2 | F,4 F,4 | F,4 F,2 F,2 | F,2 B,,2 F,4- | %6
w: Fra que- sti|sas- si'e luo-|ghi'a- spi- ri'e sel-|vag- gi,|o- ve del|Sol non pon-|
w: Poi ch'io son|so- lo, e|tu cru- del non|sen- ti,|il pian- ger|me- sto'e'i du-|
w: Ne fe- ran|fe- de, e|por- te- ran- no'il|pian- to,|per l'a- ria'in-|tor- no, do-|
w: Deh fos- s'io|mor- to, che|per vo- i ser-|vi- re,|pro- vo'un do-|lor ch'a- van-|
w: Di sas- so'in|sas- so, e|d'un in al- tro|lo- co,|mi strog- go|co- me ce-|
 F,2 F,2 F,2 G,2 | D,4 D,4 :: B,,4 B,,2 B,,2 | B,,4 B,,4 | B,,2 C,2 D,2 E,2 | F,8 | F,4 z C,C,D, | %13
w: * no con- trar'i|rag- gi,|a que- sti|fag- gi|sfor- ga- ro'il mio|duo-|lo, poi ch'io son|
w: * ri miei la-|men- ti,|ma que- sti|ven- ti|poi per lor mer-|ce-|de, ne fa- ran|
w: * lo- ro- so|tan- to,|sce- man- do'al-|quan- to|la pas- sion ch'io|por-|to, deh fos- s'io|
w: * za'o- gni mar-|ti- re,|cer- can- do|di mo-|rir di pas- so'in|pas-|so, di sas- so'in|
w: * r'ap- pres- so'il|fo- co,|pas- san- do'a|po- co'a|po- co'i fiu- mi'e'i|fon-|ti, le sel- v'e'i|
 _E,4 B,,B,,B,,C, | D,8 | G,,8 :| %16
w: so- lo, poi ch'io son|so-|lo.|
w: fe- de, ne fa- ran|fe-|de.|
w: mor- to, deh fos- s'io|mor-|to.|
w: sas- so, di sas- so'in|sas-|so.|
w: mon- ti, le sel- v'e'i|mon-|ti.|

